X: 1
T: Anne and Tam Leggat
C: Angus Fitchet
R: reel
Z: 2005 John Chambers <jc:trillian.mit.edu>
M: C|
L: 1/8
K: A
E2 | "A"A2Ac "E7"BdcB | "A"ABcd e2fg | "D"a2ga "A"fecA | "B(m)"FBBA "E7"GBEG || "A"A2c{B}A "E/G#"BEGB |
| "F#m"ABcd "C#m"e2dc | "Bm"Bcde "E7"fefg | "A"a2A2 A2 :: "E7"AB | "A"c2Bc "F#m"AFF2 | "Bm"d2cd "E7"BGG2 |
| "A"e2ce "F#m"fecA | "B7"Bc^dB "E7"e2AB || "A"c2Bc "F#m"AFF2 | "Bm"d2cd "E7"BGG2 | "A"ABcd efec | "Dm"B2A2 "A"A2 :|
